packages/core/assets/Icons/arrow_double_right.svg

<svg viewBox="0 0 20 20" fill="none" xmlns="http://www.w3.org/2000/svg">
<path d="M7.97918 9.99996L4.75001 6.74996C4.59723 6.59718 4.51737 6.40621 4.51043 6.17704C4.50348 5.94788 4.58334 5.74996 4.75001 5.58329C4.90279 5.43051 5.09723 5.35413 5.33334 5.35413C5.56945 5.35413 5.7639 5.43051 5.91668 5.58329L9.75001 9.41663C9.83334 9.49996 9.89237 9.59024 9.92709 9.68746C9.96182 9.78468 9.97918 9.88885 9.97918 9.99996C9.97918 10.1111 9.96182 10.2152 9.92709 10.3125C9.89237 10.4097 9.83334 10.5 9.75001 10.5833L5.91668 14.4166C5.7639 14.5694 5.57293 14.6493 5.34376 14.6562C5.11459 14.6632 4.91668 14.5833 4.75001 14.4166C4.59723 14.2638 4.52084 14.0694 4.52084 13.8333C4.52084 13.5972 4.59723 13.4027 4.75001 13.25L7.97918 9.99996ZM13.4792 9.99996L10.25 6.74996C10.0972 6.59718 10.0174 6.40621 10.0104 6.17704C10.0035 5.94788 10.0833 5.74996 10.25 5.58329C10.4028 5.43051 10.5972 5.35413 10.8333 5.35413C11.0695 5.35413 11.2639 5.43051 11.4167 5.58329L15.25 9.41663C15.3333 9.49996 15.3924 9.59024 15.4271 9.68746C15.4618 9.78468 15.4792 9.88885 15.4792 9.99996C15.4792 10.1111 15.4618 10.2152 15.4271 10.3125C15.3924 10.4097 15.3333 10.5 15.25 10.5833L11.4167 14.4166C11.2639 14.5694 11.0729 14.6493 10.8438 14.6562C10.6146 14.6632 10.4167 14.5833 10.25 14.4166C10.0972 14.2638 10.0208 14.0694 10.0208 13.8333C10.0208 13.5972 10.0972 13.4027 10.25 13.25L13.4792 9.99996Z" fill="currentColor"/>
</svg>

<svg xmlns="http://www.w3.org/2000/svg" width="20" height="20" fill="none" viewBox="0 0 20 20">
  <path fill="#201F1F" d="M7.98 10 4.75 6.75a.814.814 0 0 1-.24-.573.776.776 0 0 1 .24-.594.79.79 0 0 1 .583-.229.79.79 0 0 1 .584.23L9.75 9.416a.731.731 0 0 1 .177.27.922.922 0 0 1 .052.313.923.923 0 0 1-.052.313.73.73 0 0 1-.177.27l-3.833 3.834a.814.814 0 0 1-.573.24.775.775 0 0 1-.594-.24.79.79 0 0 1-.23-.584.79.79 0 0 1 .23-.583L7.98 10Zm5.5 0-3.23-3.25a.814.814 0 0 1-.24-.573.776.776 0 0 1 .24-.594.79.79 0 0 1 .583-.229.79.79 0 0 1 .584.23l3.833 3.833a.731.731 0 0 1 .177.27.923.923 0 0 1 .052.313.923.923 0 0 1-.052.313.731.731 0 0 1-.177.27l-3.833 3.834a.814.814 0 0 1-.573.24.775.775 0 0 1-.594-.24.79.79 0 0 1-.23-.584.79.79 0 0 1 .23-.583L13.48 10Z"/>
</svg>
